src/img/icons/guitar-electric.svg

<svg fill="none" height="22" viewBox="0 0 22 22" width="22" xmlns="http://www.w3.org/2000/svg"><path d="m20.9609 2.0625c-.1562-.74219-.7421-1.328125-1.4843-1.484375-.8985-.15625-.8985-.039063-4.1797 2.070315-.3516.23437-.586.625-.586 1.05468v1.32813l-4.2187 4.21875c-.2734-.46875-.3516-1.01562-.1172-1.52344l.6641-1.44531c.1562-.3125.0781-.70313-.2344-.89844-.2735-.19531-.7031-.19531-.93751.07813l-1.48438 1.48437c-.35156.3125-.58593.66407-.74219 1.13281-.27343.78126-.82031 1.40626-1.5625 1.71876l-3.00781 1.40622c-2.22656.8985-2.812498 3.7891-1.09375 5.4688l2.85156 2.8515c1.71876 1.7188 4.57032 1.1328 5.46878-1.0937l1.4062-3.0078c.3516-.7031.9766-1.2891 1.7188-1.5625.4297-.1563.8203-.3906 1.1328-.7422l.8594-.8203c.2343-.2735.2734-.6641.0781-.9766-.1953-.2734-.586-.4297-.8984-.3125l-.8985.2734c-.5078.1563-1.0547.0782-1.4453-.2734l6.7578-6.7578c.0391 0 .0781.03906.0781.03906.586 0 1.0938-.23437 1.4453-.66406.3907-.42969.5079-1.01562.4297-1.5625zm-12.89059 13.8672-.42969.4297c-.11718.1172-.3125.1172-.46874 0l-2.03126-2.0313c-.07812-.0781-.11718-.1562-.11718-.2343 0-.0782.03906-.1563.11718-.2344l.42969-.4297c.07813-.0781.15625-.0781.23438-.0781.07812 0 .15625 0 .19531.0781l2.07031 2.0703c.07813.0391.07813.1172.07813.1953s0 .1563-.07813.2344zm2.49999-2.5-.4297.4297c-.1172.1172-.31248.1172-.46872 0l-2.03126-2.0703c-.07812-.0391-.07812-.1172-.07812-.1953 0-.0782 0-.1563.07812-.2344l.42969-.4297c.07813-.0781.15625-.1172.23438-.1172.07812 0 .15625.0391.23437.1172l2.03124 2.0312c.0781.0782.1172.1563.1172.2344s-.0391.1563-.1172.2344z" fill="#fff"/></svg>

<svg width="22" height="22" viewBox="0 0 22 22" fill="none" xmlns="http://www.w3.org/2000/svg">
<path d="M20.9609 2.0625C20.8047 1.32031 20.2188 0.734375 19.4766 0.578125C18.5781 0.421875 18.5781 0.539062 15.2969 2.64844C14.9453 2.88281 14.7109 3.27344 14.7109 3.70312V5.03125L10.4922 9.25C10.2188 8.78125 10.1406 8.23438 10.375 7.72656L11.0391 6.28125C11.1953 5.96875 11.1172 5.57812 10.8047 5.38281C10.5312 5.1875 10.1016 5.1875 9.86719 5.46094L8.38281 6.94531C8.03125 7.25781 7.79688 7.60938 7.64062 8.07812C7.36719 8.85938 6.82031 9.48438 6.07812 9.79688L3.07031 11.2031C0.84375 12.1016 0.257812 14.9922 1.97656 16.6719L4.82812 19.5234C6.54688 21.2422 9.39844 20.6562 10.2969 18.4297L11.7031 15.4219C12.0547 14.7188 12.6797 14.1328 13.4219 13.8594C13.8516 13.7031 14.2422 13.4688 14.5547 13.1172L15.4141 12.2969C15.6484 12.0234 15.6875 11.6328 15.4922 11.3203C15.2969 11.0469 14.9062 10.8906 14.5938 11.0078L13.6953 11.2812C13.1875 11.4375 12.6406 11.3594 12.25 11.0078L19.0078 4.25C19.0469 4.25 19.0859 4.28906 19.0859 4.28906C19.6719 4.28906 20.1797 4.05469 20.5312 3.625C20.9219 3.19531 21.0391 2.60938 20.9609 2.0625ZM8.07031 15.9297L7.64062 16.3594C7.52344 16.4766 7.32812 16.4766 7.17188 16.3594L5.14062 14.3281C5.0625 14.25 5.02344 14.1719 5.02344 14.0938C5.02344 14.0156 5.0625 13.9375 5.14062 13.8594L5.57031 13.4297C5.64844 13.3516 5.72656 13.3516 5.80469 13.3516C5.88281 13.3516 5.96094 13.3516 6 13.4297L8.07031 15.5C8.14844 15.5391 8.14844 15.6172 8.14844 15.6953C8.14844 15.7734 8.14844 15.8516 8.07031 15.9297ZM10.5703 13.4297L10.1406 13.8594C10.0234 13.9766 9.82812 13.9766 9.67188 13.8594L7.64062 11.7891C7.5625 11.75 7.5625 11.6719 7.5625 11.5938C7.5625 11.5156 7.5625 11.4375 7.64062 11.3594L8.07031 10.9297C8.14844 10.8516 8.22656 10.8125 8.30469 10.8125C8.38281 10.8125 8.46094 10.8516 8.53906 10.9297L10.5703 12.9609C10.6484 13.0391 10.6875 13.1172 10.6875 13.1953C10.6875 13.2734 10.6484 13.3516 10.5703 13.4297Z" fill="white"/>
</svg>
